packages/icons/src/logo.svg

<?xml version="1.0" encoding="UTF-8" standalone="no"?>
<!-- Created with Inkscape (http://www.inkscape.org/) -->

<svg width="72.566032mm" height="74.711235mm" viewBox="0 0 72.566032 74.711235" version="1.1" id="svg1"
   inkscape:export-filename="logo.svg" inkscape:export-xdpi="34.472015" inkscape:export-ydpi="34.472015"
   sodipodi:docname="logo.svg" inkscape:version="1.3.2 (091e20e, 2023-11-25, custom)"
   xmlns:inkscape="http://www.inkscape.org/namespaces/inkscape"
   xmlns:sodipodi="http://sodipodi.sourceforge.net/DTD/sodipodi-0.dtd" xmlns="http://www.w3.org/2000/svg"
   xmlns:svg="http://www.w3.org/2000/svg">
   <sodipodi:namedview id="namedview1" pagecolor="#ffffff" bordercolor="#000000" borderopacity="0.25"
      inkscape:showpageshadow="2" inkscape:pageopacity="0.0" inkscape:pagecheckerboard="0" inkscape:deskcolor="#d1d1d1"
      inkscape:document-units="mm" inkscape:zoom="2.0965165" inkscape:cx="137.13224" inkscape:cy="141.18659"
      inkscape:window-width="1440" inkscape:window-height="830" inkscape:window-x="-6" inkscape:window-y="-6"
      inkscape:window-maximized="1" inkscape:current-layer="layer1" />
   <defs id="defs1" />
   <g inkscape:label="图层 1" inkscape:groupmode="layer" id="layer1" transform="translate(-50.041322,-58.469939)">
      <path sodipodi:type="star"
         style="opacity:0.9;fill:#ff0000;fill-opacity:0.996825;stroke:#000000;stroke-width:0.264999;stroke-linejoin:bevel;paint-order:stroke markers fill;fill-rule:nonzero"
         id="path3" inkscape:flatsided="false" sodipodi:sides="2" sodipodi:cx="85.167892" sodipodi:cy="83.679222"
         sodipodi:r1="18.095842" sodipodi:r2="24.62085" sodipodi:arg1="-0.069138489" sodipodi:arg2="1.5261653"
         inkscape:rounded="0" inkscape:randomized="0"
         d="M 103.2205,82.429099 86.266381,108.27555 67.115283,84.929345 84.069403,59.08289 Z"
         inkscape:transform-center-x="-1.7492795" inkscape:transform-center-y="-0.92537009"
         transform="matrix(1.0000138,0,0,0.99482494,-0.00117534,-0.22359398)" />
      <path sodipodi:type="star"
         style="opacity:0.9;fill:#ffff07;fill-opacity:0.936508;stroke:#000000;stroke-width:0.264999;stroke-linejoin:bevel;paint-order:stroke markers fill"
         id="path4" inkscape:flatsided="false" sodipodi:sides="2" sodipodi:cx="50.233234" sodipodi:cy="85.03019"
         sodipodi:r1="22.058878" sodipodi:r2="17.033627" sodipodi:arg1="1.497376" sodipodi:arg2="3.0640299"
         inkscape:rounded="0" inkscape:randomized="0"
         d="M 51.85135,107.02964 33.250819,86.35004 48.615119,63.03074 67.21565,83.710339 Z"
         inkscape:transform-center-y="0.019979844"
         transform="matrix(1.0608084,0.00192179,-0.02309913,1.1062348,16.878872,14.583782)"
         inkscape:transform-center-x="0.80066801" />
      <path sodipodi:type="star"
         style="opacity:0.9;fill:#0055d4;fill-opacity:0.980952;stroke:#000000;stroke-width:0.264999;stroke-linejoin:bevel;paint-order:stroke markers fill"
         id="path4-2" inkscape:flatsided="false" sodipodi:sides="2" sodipodi:cx="46.927456" sodipodi:cy="84.742828"
         sodipodi:r1="23.500795" sodipodi:r2="17.512691" sodipodi:arg1="1.5273624" sodipodi:arg2="3.1092587"
         inkscape:rounded="0" inkscape:randomized="0"
         d="M 47.947867,108.22146 29.423918,85.308984 45.907045,61.264197 64.430994,84.176672 Z"
         inkscape:transform-center-y="-1.3076344e-05"
         transform="matrix(1.0316983,0.02730956,0.00180469,1.0920464,55.869217,13.592606)"
         inkscape:transform-center-x="-1.8592549e-06" />
   </g>
</svg>

<svg xmlns="http://www.w3.org/2000/svg" width="274.265" height="282.373" viewBox="0 0 72.566 74.711"><path d="m103.22 82.43-16.954 25.846-19.15-23.347 16.953-25.846Z" style="opacity:.9;fill:red;fill-opacity:.996825;stroke:#000;stroke-width:.264999;stroke-linejoin:bevel;paint-order:stroke markers fill;fill-rule:nonzero" transform="matrix(1.00001 0 0 .99482 -50.042 -58.694)"/><path d="m51.851 107.03-18.6-20.68 15.364-23.32 18.6 20.68Z" style="opacity:.9;fill:#ffff07;fill-opacity:.936508;stroke:#000;stroke-width:.264999;stroke-linejoin:bevel;paint-order:stroke markers fill" transform="matrix(1.0608 .00192 -.0231 1.10623 -33.162 -43.886)"/><path d="M47.948 108.221 29.424 85.31l16.483-24.045 18.524 22.913Z" style="opacity:.9;fill:#0055d4;fill-opacity:.980952;stroke:#000;stroke-width:.264999;stroke-linejoin:bevel;paint-order:stroke markers fill" transform="matrix(1.0317 .02731 .0018 1.09205 5.828 -44.877)"/></svg>
